X:237
T:Steirische Jodler und Taenze Nr. 1 - 48 (35.)
C:traditionell
A:Salzkammergut
S:MIDI erhalten von Christian Amon. Nach einer kopie im besitz von Johann Stoeckl eines manuscriptes. Stoeckl(zitiert von Amon): "diese sammlung wurde 1935 im hause der familie Hohenlohe-Schillingfuerst gefunden. Sie wurde von einem der beiden brueder Steinegger 1866 verfasst. Die originale sind im Ausseer Kammerhofmuseum".
M:3/4
L:1/8
K:G
V:1
Bd gd bg | d'3 c' dc' | f6 |\
Ad fd af | d'3 b db | g6 |*
V:2
GB dB gB | b3 a Aa | d6 |\
FA dA fd | b3 g Bg | B6 |*
